X: 315
%
U:~=!turn!
T: Lady Mary Hope Vere
C:
O:Scotland
B:Keith Norman MacDonald : "The Skye collection of the best reels & strathspeys extant" : 1887
Z:Ralph Palmer
R:Reel
M:C|
L:1/8
K:D
c | {/c}d2 AG FGAF | {/F}GEed cABc | {/c}d2 AG FGAg |
faeg fdd :: g | fdad bdag | fdaf {/f}geeg |
[1 fdad bdaf | ge(ag) fdd :| [2 fdcd BdAG | FA{/f}ge fdd |]


